!!!OTL: Xiaoxaio liyu fenhong sai
!!!ARE: Asia, China,ÿJiangsu, Subei)
!! III, 500
!!!SCT: C1585
!!!YEM: Copyright 1995, estate of Helmut Schaffrath.
**kern
*ICvox
*Ivox
*M2/4
*k[f#c#]
*D:
{4dd
4dd
=1
8ee
8ff#
4dd
=2
8b
16a
16a
16b
16a
16b
16dd
=3
2a}
=4
{8.a
16b
8dd
16ee
16dd
=5
16b
16dd
16b
16a
8f#
16e
16f#
=6
8a
8e
8f#
8a
=7
2d}
=8
{16f#
16e
16f#
16a
16b
16a
16b
16dd
=9
2a}
=10
{16f#
16e
16f#
16a
16b
16a
16b
16dd
=11
2a}
=12
{8a
16a
16b
8dd
16ee
16dd
=13
16b
16dd
16b
16a
8f#
16e
16f#
=14
8a
8e
8f#
8a
=15
2d}
=16
{8f#
16f#
16e
16d
16e
8f#
=17
8.e
16d
4e}
=18
{8f#
16f#
16e
16d
16e
8f#
=19
8.e
16d
4e}
=20
{8a
16a
16b
8dd
16ee
16dd
=21
16b
16dd
16b
16a
8f#
16e
16f#
=22
8a
8e
8f#
8a
=23
2d}
==
!!!AGN: Xiaodiao, Baduan jin
!!!AMT: simple duple
!!!AIN: vox
!!!EED: Helmut Schaffrath
!!!EEV: 1.0
*-
